projects/oblique/icons/Eraser.svg

<?xml version="1.0" encoding="UTF-8"?><svg id="a" xmlns="http://www.w3.org/2000/svg" viewBox="0 0 24 24"><path d="M5.12988,1.25025l-3.00568,16.02246h-.00018l-1.02734,5.47754h17.77344L22.90332,1.25025H5.12988ZM6.375,2.75025h14.7207l-2.7243,14.52148-14.72089.00085L6.375,2.75025Z"/></svg>

<svg xmlns="http://www.w3.org/2000/svg" viewBox="0 0 24 24"><title>Eraser</title><path d="M5.12988,1.25025,2.12421,17.27271H2.124L1.09668,22.75025H18.87012l4.0332-21.5Zm1.24512,1.5H21.0957L18.3714,17.27173l-14.72089.00085Z" fill="#171717"/></svg>
